dist/img/carticon1.svg

<svg width="35" height="35" viewBox="0 0 35 35" xmlns="http://www.w3.org/2000/svg">
<path d="M6.01562 2.1875C5.112 2.1875 4.375 2.9245 4.375 3.82812V31.1719C4.375 32.0755 5.112 32.8125 6.01562 32.8125H27.8906C28.7943 32.8125 29.5312 32.0755 29.5312 31.1719V9.65576C29.5312 8.92517 29.2471 8.23944 28.7302 7.72247L23.9963 2.98859C23.4793 2.47162 22.7936 2.1875 22.063 2.1875H6.01562ZM6.01562 3.28125H21.875V8.20312C21.875 9.10675 22.612 9.84375 23.5156 9.84375H28.4375V31.1719C28.4375 31.4731 28.1918 31.7188 27.8906 31.7188H6.01562C5.71442 31.7188 5.46875 31.4731 5.46875 31.1719V3.82812C5.46875 3.52692 5.71442 3.28125 6.01562 3.28125ZM22.9688 3.55469C23.0585 3.6145 23.1439 3.68286 23.223 3.7619L27.9568 8.49579C28.0338 8.57269 28.1021 8.65814 28.1641 8.75H23.5156C23.2144 8.75 22.9688 8.50433 22.9688 8.20312V3.55469ZM10.3906 7.65625C10.0873 7.65625 9.84375 7.89978 9.84375 8.20312C9.84375 8.50647 10.0873 8.75 10.3906 8.75H20.2344C20.5377 8.75 20.7812 8.50647 20.7812 8.20312C20.7812 7.89978 20.5377 7.65625 20.2344 7.65625H10.3906ZM10.3906 9.84375C10.0873 9.84375 9.84375 10.0873 9.84375 10.3906C9.84375 10.694 10.0873 10.9375 10.3906 10.9375H21.3281C21.6315 10.9375 21.875 10.694 21.875 10.3906C21.875 10.0873 21.6315 9.84375 21.3281 9.84375H10.3906ZM10.3906 12.0312C10.0873 12.0312 9.84375 12.2748 9.84375 12.5781C9.84375 12.8815 10.0873 13.125 10.3906 13.125H19.1406C19.444 13.125 19.6875 12.8815 19.6875 12.5781C19.6875 12.2748 19.444 12.0312 19.1406 12.0312H10.3906ZM21.3281 12.0312C21.0248 12.0312 20.7812 12.2748 20.7812 12.5781C20.7812 12.8815 21.0248 13.125 21.3281 13.125H23.5156C23.819 13.125 24.0625 12.8815 24.0625 12.5781C24.0625 12.2748 23.819 12.0312 23.5156 12.0312H21.3281ZM10.3906 14.2188C10.0873 14.2188 9.84375 14.4623 9.84375 14.7656C9.84375 15.069 10.0873 15.3125 10.3906 15.3125H23.5156C23.819 15.3125 24.0625 15.069 24.0625 14.7656C24.0625 14.4623 23.819 14.2188 23.5156 14.2188H10.3906ZM10.3906 16.4062C10.0873 16.4062 9.84375 16.6498 9.84375 16.9531C9.84375 17.2565 10.0873 17.5 10.3906 17.5H23.5156C23.819 17.5 24.0625 17.2565 24.0625 16.9531C24.0625 16.6498 23.819 16.4062 23.5156 16.4062H10.3906ZM10.3906 18.5938C10.0873 18.5938 9.84375 18.8373 9.84375 19.1406C9.84375 19.444 10.0873 19.6875 10.3906 19.6875H18.0469C18.3502 19.6875 18.5938 19.444 18.5938 19.1406C18.5938 18.8373 18.3502 18.5938 18.0469 18.5938H10.3906ZM12.7597 22.4411C12.5995 22.4518 12.4734 22.5031 12.3965 22.5436C11.5442 22.9901 11.5378 24.5731 11.8155 25.9061C11.9373 26.4893 12.2684 27.2348 12.7063 27.8543C12.4884 28.3072 12.2107 28.7195 11.8732 29.0356C11.6531 29.2407 11.6403 29.5868 11.8454 29.8068C11.9543 29.9243 12.0996 29.982 12.2449 29.982C12.3795 29.982 12.514 29.9329 12.6208 29.8325C12.9626 29.5142 13.2532 29.1232 13.4967 28.696C13.5416 28.7302 13.5864 28.7622 13.6313 28.7921C13.8342 28.9224 14.0286 28.9951 14.223 29.0121C14.458 29.0314 14.6973 28.9737 14.9387 28.8412C15.304 28.6404 15.6372 28.3157 15.9021 27.9333C16.1456 28.0103 16.402 27.9974 16.637 27.8949C17.2885 27.6108 17.5449 27.0789 17.6837 26.7947L17.7243 26.7072C17.7393 26.6772 17.7563 26.6473 17.7713 26.6153H17.7734C18.5617 26.7627 19.0787 26.0406 19.3243 25.6946C19.4846 25.4724 19.6576 25.3635 19.6725 25.3506C19.9353 25.5002 20.2707 25.4126 20.4224 25.152C20.5719 24.8914 20.4843 24.556 20.2237 24.4043C19.6555 24.0753 18.9526 24.3338 18.4335 25.0601C18.2327 25.3421 18.1131 25.4575 18.0533 25.5087C18.0725 25.2545 18.0576 25.011 17.9871 24.8145C17.8867 24.5303 17.7029 24.4 17.5662 24.3423C17.406 24.2761 17.2244 24.2868 17.0728 24.3723C16.9339 24.4556 16.6177 24.7141 16.731 25.3506C16.7587 25.513 16.8121 25.6818 16.889 25.8441C16.8549 25.9723 16.81 26.0983 16.7566 26.2009L16.6968 26.3205C16.6263 26.47 16.5515 26.6217 16.4319 26.7435C16.4725 26.5576 16.4938 26.376 16.4917 26.2009C16.4746 25.0003 16.2503 24.3381 15.7889 24.1223C15.5347 24.0027 15.2484 24.0411 15.022 24.2227C14.5947 24.5688 14.4388 25.4361 14.646 26.3333C14.7101 26.6174 14.8511 26.9507 15.0497 27.2412C14.8724 27.5168 14.646 27.7539 14.4131 27.8821C14.3533 27.9163 14.3213 27.9227 14.3213 27.9248C14.3149 27.9227 14.2871 27.9141 14.2273 27.8735C14.1418 27.818 14.0564 27.7496 13.9709 27.6663C14.2679 26.8567 14.4196 26.0065 14.4409 25.2823C14.4708 24.2334 14.2422 23.4003 13.7958 22.9324C13.3942 22.5116 13.0267 22.4219 12.7597 22.4411ZM12.8772 23.5733C12.9092 23.5968 12.9498 23.6331 13.0032 23.6887C13.1848 23.8788 13.3707 24.3893 13.345 25.2502C13.3344 25.6305 13.2788 26.062 13.1763 26.5021C13.0396 26.2158 12.937 25.9274 12.8857 25.6839C12.6401 24.5004 12.7682 23.804 12.8772 23.5733ZM7.10938 27.3438C6.80603 27.3438 6.5625 27.5873 6.5625 27.8906V28.9844C6.5625 29.2877 6.80603 29.5312 7.10938 29.5312C7.41272 29.5312 7.65625 29.2877 7.65625 28.9844V27.8906C7.65625 27.5873 7.41272 27.3438 7.10938 27.3438ZM9.84375 27.3438C9.54041 27.3438 9.29688 27.5873 9.29688 27.8906V28.9844C9.29688 29.2877 9.54041 29.5312 9.84375 29.5312C10.1471 29.5312 10.3906 29.2877 10.3906 28.9844V27.8906C10.3906 27.5873 10.1471 27.3438 9.84375 27.3438ZM18.5938 27.3438C18.2904 27.3438 18.0469 27.5873 18.0469 27.8906V28.9844C18.0469 29.2877 18.2904 29.5312 18.5938 29.5312C18.8971 29.5312 19.1406 29.2877 19.1406 28.9844V27.8906C19.1406 27.5873 18.8971 27.3438 18.5938 27.3438ZM21.3281 27.3438C21.0248 27.3438 20.7812 27.5873 20.7812 27.8906V28.9844C20.7812 29.2877 21.0248 29.5312 21.3281 29.5312C21.6315 29.5312 21.875 29.2877 21.875 28.9844V27.8906C21.875 27.5873 21.6315 27.3438 21.3281 27.3438ZM24.0625 27.3438C23.7592 27.3438 23.5156 27.5873 23.5156 27.8906V28.9844C23.5156 29.2877 23.7592 29.5312 24.0625 29.5312C24.3658 29.5312 24.6094 29.2877 24.6094 28.9844V27.8906C24.6094 27.5873 24.3658 27.3438 24.0625 27.3438ZM26.7969 27.3438C26.4935 27.3438 26.25 27.5873 26.25 27.8906V28.9844C26.25 29.2877 26.4935 29.5312 26.7969 29.5312C27.1002 29.5312 27.3438 29.2877 27.3438 28.9844V27.8906C27.3438 27.5873 27.1002 27.3438 26.7969 27.3438Z"/>
</svg>

<svg xmlns="http://www.w3.org/2000/svg" viewBox="0 0 35 35"><path d="M6.016 2.188c-.904 0-1.641.736-1.641 1.64v27.344c0 .903.737 1.64 1.64 1.64h21.876c.903 0 1.64-.736 1.64-1.64V9.656c0-.73-.284-1.417-.8-1.934L23.995 2.99a2.715 2.715 0 00-1.933-.801H6.016zm0 1.093h15.859v4.922c0 .904.737 1.64 1.64 1.64h4.922v21.329a.548.548 0 01-.546.547H6.016a.548.548 0 01-.547-.547V3.828c0-.301.245-.547.547-.547zm16.953.274c.09.06.175.128.254.207l4.734 4.734c.077.077.145.162.207.254h-4.648a.548.548 0 01-.547-.547V3.555zM10.39 7.656a.545.545 0 00-.547.547c0 .303.243.547.547.547h9.843a.545.545 0 00.547-.547.545.545 0 00-.547-.547h-9.843zm0 2.188a.545.545 0 00-.547.547c0 .303.243.546.547.546h10.937a.545.545 0 00.547-.546.545.545 0 00-.547-.547H10.391zm0 2.187a.545.545 0 00-.547.547c0 .304.243.547.547.547h8.75a.545.545 0 00.547-.547.545.545 0 00-.547-.547h-8.75zm10.937 0a.545.545 0 00-.547.547c0 .304.244.547.547.547h2.188a.545.545 0 00.547-.547.545.545 0 00-.547-.547h-2.188zM10.391 14.22a.545.545 0 00-.547.547c0 .303.243.546.547.546h13.125a.545.545 0 00.547-.546.545.545 0 00-.547-.547H10.39zm0 2.187a.545.545 0 00-.547.547c0 .303.243.547.547.547h13.125a.545.545 0 00.547-.547.545.545 0 00-.547-.547H10.39zm0 2.188a.545.545 0 00-.547.547c0 .303.243.547.547.547h7.656a.545.545 0 00.547-.547.545.545 0 00-.547-.547H10.39zm2.369 3.847a.916.916 0 00-.364.103c-.852.446-.858 2.03-.58 3.362.121.583.452 1.329.89 1.948-.218.453-.495.866-.833 1.182a.546.546 0 10.748.796 4.78 4.78 0 00.876-1.136c.045.034.09.066.134.096.203.13.398.203.592.22.235.02.474-.038.716-.17.365-.202.698-.526.963-.909.244.077.5.064.735-.038.651-.284.908-.816 1.047-1.1l.04-.088c.015-.03.032-.06.047-.092h.002c.789.148 1.306-.574 1.551-.92.16-.223.334-.332.348-.344.263.15.599.062.75-.199a.55.55 0 00-.198-.748c-.569-.329-1.271-.07-1.79.656-.201.282-.32.398-.38.449.019-.255.004-.498-.067-.695a.763.763 0 00-.42-.472.565.565 0 00-.494.03c-.14.084-.455.342-.342.979.028.162.081.33.158.493a1.791 1.791 0 01-.132.357l-.06.12c-.07.149-.145.3-.265.422.04-.185.062-.367.06-.542-.017-1.2-.242-1.863-.703-2.079a.716.716 0 00-.767.1c-.427.347-.583 1.214-.376 2.111.064.284.205.618.404.908-.178.276-.404.513-.637.641-.06.034-.092.04-.092.043-.006-.002-.034-.01-.094-.052a1.677 1.677 0 01-.256-.207c.297-.81.449-1.66.47-2.384.03-1.049-.199-1.882-.645-2.35-.402-.42-.77-.51-1.036-.49zm.117 1.132c.032.024.073.06.126.116.182.19.368.7.342 1.561-.01.38-.066.812-.169 1.252a3.798 3.798 0 01-.29-.818c-.246-1.184-.118-1.88-.009-2.11zm-5.768 3.77a.545.545 0 00-.546.548v1.093c0 .304.243.547.546.547a.545.545 0 00.547-.547v-1.093a.545.545 0 00-.547-.547zm2.735 0a.545.545 0 00-.547.548v1.093c0 .304.243.547.547.547a.545.545 0 00.547-.547v-1.093a.545.545 0 00-.547-.547zm8.75 0a.545.545 0 00-.547.548v1.093c0 .304.243.547.547.547a.545.545 0 00.547-.547v-1.093a.545.545 0 00-.547-.547zm2.734 0a.545.545 0 00-.547.548v1.093c0 .304.244.547.547.547a.545.545 0 00.547-.547v-1.093a.545.545 0 00-.547-.547zm2.735 0a.545.545 0 00-.547.548v1.093c0 .304.243.547.547.547a.545.545 0 00.546-.547v-1.093a.545.545 0 00-.547-.547zm2.734 0a.545.545 0 00-.547.548v1.093c0 .304.244.547.547.547a.545.545 0 00.547-.547v-1.093a.545.545 0 00-.547-.547z"/></svg>
